web/ui/src/components/theme/tabs/svgs/record.svg

<svg height="16" viewBox="0 0 16 16" width="16" xmlns="http://www.w3.org/2000/svg"><g fill="none" fill-rule="evenodd"><path d="m0 0h16v16h-16z" fill="#000" fill-rule="nonzero" opacity="0"/><g fill="#595959"><rect height="1" rx=".5" width="8" x="4" y="11.5"/><path d="m12.8392578 1.02324219c.3867188-.05976563.7839844.05273437 1.0863281.309375.3146485.28125.4798829.69082031.45 1.10214843-.0193359.4078125-.1845703.8015625-.4623046 1.1109375l-5.27695317 5.98359375c-.05097657.05800782-.11601563.10019532-.18808594.1265625l-1.93007813.68027343c-.04921875.0175781-.0984375.0263672-.14941406.0263672-.10898437 0-.21445312-.0386719-.29882812-.1125-.12304688-.1089844-.17753907-.27421875-.14238282-.43417969l.44121094-2.00917969c.01582031-.07558593.05097656-.14414062.10195313-.20214843l5.27871097-5.98710938c.2759765-.31992187.6644531-.53261719 1.0898437-.59414062zm.2098406.88543125-.0780046.00577968c-.216211.03164063-.4078125.13535157-.5449219.2953125l-5.20312502 5.90273438-.24257813 1.10390625 1.05644531-.37265625 5.20312504-5.90097656c.1441406-.15820313.225-.35332032.2355468-.55546875 0-.00527344.0017579-.01582032.0017579-.02109375.008789-.12832032-.0439454-.26015625-.1423829-.3515625-.1019531-.084375-.233789-.12128907-.3638671-.10019532z" fill-rule="nonzero"/><path d="m8.33045284 13.9301926c.26961631 0 .48695641.2406741.48695641.5386863.00286445.2936297-.21483371.534669-.48695641.5383211h-5.38010135c-1.07416856 0-1.94675149-.9652528-1.94675149-2.1536495v-9.692701c0-1.18839672.87222487-2.1536495 1.94675149-2.1536495h9.75984461c1.0738105 0 1.9464214.96525278 1.9464214 2.1536495v4.69233579c.0028365.29362967-.2148616.53466896-.4869844.53832107-.2717646-.00401732-.4891047-.2446914-.4858822-.53832107v-4.69233579c0-.59492878-.4350383-1.07664214-.9735548-1.07664214h-9.75984461c-.53815845 0-.97355477.48098294-.97355477 1.07664214v9.692701c0 .595294.43539632 1.0766421.97391283 1.0766421z" fill-rule="nonzero" transform="matrix(1 0 0 -1 0 16.0144)"/></g></g></svg>

<?xml version="1.0" encoding="UTF-8"?>
<svg width="16px" height="16px" viewBox="0 0 16 16" version="1.1" xmlns="http://www.w3.org/2000/svg" xmlns:xlink="http://www.w3.org/1999/xlink">
    <title>record</title>
    <g id="页面-1" stroke="none" stroke-width="1" fill="none" fill-rule="evenodd">
        <g id="系统设计规范" transform="translate(-592.000000, -5388.000000)">
            <g id="record" transform="translate(592.000000, 5388.000000)">
                <rect id="矩形" fill="#000000" fill-rule="nonzero" opacity="0" x="0" y="0" width="16" height="16"></rect>
                <rect id="矩形" fill="#595959" x="4" y="11.5" width="8" height="1" rx="0.5"></rect>
                <path d="M12.8392578,1.02324219 C13.2259766,0.963476562 13.6232422,1.07597656 13.9255859,1.33261719 L13.9255859,1.33261719 C14.2402344,1.61386719 14.4054688,2.0234375 14.3755859,2.43476562 C14.35625,2.84257812 14.1910156,3.23632812 13.9132813,3.54570312 L13.9132813,3.54570312 L8.63632813,9.52929687 C8.58535156,9.58730469 8.5203125,9.62949219 8.44824219,9.65585937 L8.44824219,9.65585937 L6.51816406,10.3361328 C6.46894531,10.3537109 6.41972656,10.3625 6.36875,10.3625 C6.25976563,10.3625 6.15429688,10.3238281 6.06992188,10.25 C5.946875,10.1410156 5.89238281,9.97578125 5.92753906,9.81582031 L5.92753906,9.81582031 L6.36875,7.80664062 C6.38457031,7.73105469 6.41972656,7.6625 6.47070313,7.60449219 L6.47070313,7.60449219 L11.7494141,1.61738281 C12.0253906,1.29746094 12.4138672,1.08476562 12.8392578,1.02324219 Z M13.0490984,1.90867344 L12.9710938,1.91445312 C12.7548828,1.94609375 12.5632813,2.04980469 12.4261719,2.20976562 L12.4261719,2.20976562 L7.22304688,8.1125 L6.98046875,9.21640625 L8.03691406,8.84375 L13.2400391,2.94277344 C13.3841797,2.78457031 13.4650391,2.58945312 13.4755859,2.38730469 C13.4755859,2.38203125 13.4773438,2.37148437 13.4773438,2.36621094 C13.4861328,2.23789062 13.4333984,2.10605469 13.3349609,2.01464844 C13.2330078,1.93027344 13.1011719,1.89335937 12.9710938,1.91445312 Z" id="形状结合" fill="#595959" fill-rule="nonzero"></path>
                <path d="M8.33045284,13.9301926 C8.60006915,13.9301926 8.81740925,14.1708667 8.81740925,14.4688789 C8.8202737,14.7625086 8.60257554,15.0035479 8.33045284,15.0072 L2.95035149,15.0072 C1.87618293,15.0072 1.0036,14.0419472 1.0036,12.8535505 L1.0036,3.1608495 C1.0036,1.97245278 1.87582487,1.0072 2.95035149,1.0072 L12.7101961,1.0072 C13.7840066,1.0072 14.6566175,1.97245278 14.6566175,3.1608495 L14.6566175,7.85318529 C14.659454,8.14681496 14.4417559,8.38785425 14.1696331,8.39150636 C13.8978685,8.38748904 13.6805284,8.14681496 13.6837509,7.85318529 L13.6837509,3.1608495 C13.6837509,2.56592072 13.2487126,2.08420736 12.7101961,2.08420736 L2.95035149,2.08420736 C2.41219304,2.08420736 1.97679672,2.5651903 1.97679672,3.1608495 L1.97679672,12.8535505 C1.97679672,13.4488445 2.41219304,13.9301926 2.95070955,13.9301926 L8.33045284,13.9301926 Z" id="路径" fill="#595959" fill-rule="nonzero" transform="translate(7.830109, 8.007200) scale(1, -1) translate(-7.830109, -8.007200) "></path>
            </g>
        </g>
    </g>
</svg>
